X:1
T:We three kinds of Orient are
T:We three kinds of Orient are
T:John Henry Hopkins (1820-1891)
C:John Henry Hopkins (1820-1891)
%%score [ 1 2 3 4 ]
L:1/8
Q:1/4=80
M:3/8
K:G
V:1 treble nm="Soprano"
V:2 treble nm="Alto"
V:3 treble-8 nm="Tenor"
V:4 bass nm="Bass"
V:1
 B2 A | G2 E | F G F | E2 z | B2 A | G2 E | F G F | E2 z | G2 G | A2 A | B2 B | dc B | A B A | %13
w: 1.We three|kinds of|O- ri- ent|are;|bear- ing|gifts we|tra- verse a-|far|field and|foun- tain,|moor and|moun- * tain|fol- lo- wing|
w: 2.Born a|king on|Beth- le- hem|plain,|gold I|bring to|crown him a-|gain.|Kind for|ev- er:|ceas- ing|nev- * er|o- ver us|
w: 3.Frank- in-|cense to|of- fer have|I;|in- cense|owns a|De- i- ty|nigh:|pray'r and|prais- ing,|all men|rais- * ing,|wor- ship him,|
w: 4.Myrrh is|mine; its|bit- ter per-|fume|breathes a|life of|gath- er- ing|gloom;|sorrow- ing,|sigh- ing,|bleed- ing,|dy- * ing|sealed in the|
w: 5.Glo- rious|now, be-|hold him a-|rise,|King and|God and|Sac- * ri-|fice.|Al- le-|lu- ia,|al- le-|lu- * ia.|Heav- en and|
 G2 F | E2 z | (F2 B) | G2 G | G2 D | G2 E | G2 z | G2 G | G2 D | G2 E | G2 z | G2 G | A2 B | %26
w: yon- der|star:|O _|star of|won- der,|star of|night,|star with|roy- al|beau- ty|bright,|west- ward|lead- ing,|
w: all to|reign:||||||||||||
w: God on|high:||||||||||||
w: stone- cold|tomb:||||||||||||
w: earth re-|plies.||||||||||||
 c2 B | A2 B | G2 G | G2 D | G2 E | G3 :| G3 | G3 |] %34
w: still pro-|ceed- ing,|guide us|to thy|per- fect|light.|A-|men.|
w: ||||||||
w: ||||||||
w: ||||||||
w: ||||||||
V:2
 G2 F | E2 E | ^D D D | E2 z | G2 F | E2 E | E ^D D | E2 z | E2 E | F2 F | G2 G | BA G | E E E | %13
w: 1.We three|kinds of|O- ri- ent|are;|bear- ing|gifts we|tra- verse a-|far|field and|foun- tain,|moor and|moun- * tain|fol- lo- wing|
w: 2.Born a|king on|Beth- le- hem|plain,|gold I|bring to|crown him a-|gain.|Kind for|ev- er:|ceas- ing|nev- * er|o- ver us|
w: 3.Frank- in-|cense to|of- fer have|I;|in- cense|owns a|De- i- ty|nigh:|pray'r and|prais- ing,|all men|rais- * ing,|wor- ship him,|
w: 4.Myrrh is|mine; its|bit- ter per-|fume|breathes a|life of|gath- er- ing|gloom;|sorrow- ing,|sigh- ing,|bleed- ing,|dy- * ing|sealed in the|
w: 5.Glo- rious|now, be-|hold him a-|rise,|King and|God and|Sac- * ri-|fice.|Al- le-|lu- ia,|al- le-|lu- * ia.|Heav- en and|
 E2 ^D | E2 z | =D3 | D2 D | D2 B, | E2 C | B,2 z | D2 D | D2 B, | E2 C | B,2 z | E2 E | F2 G | %26
w: yon- der|star:|O|star of|won- der,|star of|night,|star with|roy- al|beau- ty|bright,|west- ward|lead- ing,|
w: all to|reign:||||||||||||
w: God on|high:||||||||||||
w: stone- cold|tomb:||||||||||||
w: earth re-|plies.||||||||||||
 G2 G | F2 G | D2 D | D2 B, | E2 C | B,3 :| E3 | D3 |] %34
w: still pro-|ceed- ing,|guide us|to thy|per- fect|light.|A-|men.|
w: ||||||||
w: ||||||||
w: ||||||||
w: ||||||||
V:3
 B2 B | B2 G | A A A | G2 z | B2 B | B2 G | A A A | G2 z | B2 B | d2 d | d2 d | d2 d | c c c | %13
w: 1.We three|kinds of|O- ri- ent|are;|bear- ing|gifts we|tra- verse a-|far|field and|foun- tain,|moor and|moun- tain|fol- lo- wing|
w: 2.Born a|king on|Beth- le- hem|plain,|gold I|bring to|crown him a-|gain.|Kind for|ev- er:|ceas- ing|nev- er|o- ver us|
w: 3.Frank- in-|cense to|of- fer have|I;|in- cense|owns a|De- i- ty|nigh:|pray'r and|prais- ing,|all men|rais- ing,|wor- ship him,|
w: 4.Myrrh is|mine; its|bit- ter per-|fume|breathes a|life of|gath- er- ing|gloom;|sorrow- ing,|sigh- ing,|bleed- ing,|dy- ing|sealed in the|
w: 5.Glo- rious|now, be-|hold him a-|rise,|King and|God and|Sac- * ri-|fice.|Al- le-|lu- ia,|al- le-|lu- ia.|Heav- en and|
 B2 A | G2 z | c3 | B2 B | B2 G | G2 G | G2 z | B2 B | B2 B | G2 G | G2 z | B2 B | d2 d | e2 d | %27
w: yon- der|star:|O|star of|won- der,|star of|night,|star with|roy- al|beau- ty|bright,|west- ward|lead- ing,|still pro-|
w: all to|reign:|||||||||||||
w: God on|high:|||||||||||||
w: stone- cold|tomb:|||||||||||||
w: earth re-|plies.|||||||||||||
 d2 d | B2 B | B2 G | G2 G | G3 :| c3 | B3 |] %34
w: ceed- ing,|guide us|to thy|per- fect|light.|A-|men.|
w: |||||||
w: |||||||
w: |||||||
w: |||||||
V:4
 E,2 E, | E,2 E, | B,, B,, B,, | E,2 z | E,2 E, | E,2 E, | B,, B,, B,, | E,2 z | E,2 E, | D,2 D, | %10
w: 1.We three|kinds of|O- ri- ent|are;|bear- ing|gifts we|tra- verse a-|far|field and|foun- tain,|
w: 2.Born a|king on|Beth- le- hem|plain,|gold I|bring to|crown him a-|gain.|Kind for|ev- er:|
w: 3.Frank- in-|cense to|of- fer have|I;|in- cense|owns a|De- i- ty|nigh:|pray'r and|prais- ing,|
w: 4.Myrrh is|mine; its|bit- ter per-|fume|breathes a|life of|gath- er- ing|gloom;|sorrow- ing,|sigh- ing,|
w: 5.Glo- rious|now, be-|hold him a-|rise,|King and|God and|Sac- * ri-|fice.|Al- le-|lu- ia,|
 G,2 G, | G,2 G, | C, C, A,, | B,,2 B,, | E,2 z | D,3 | G,2 G, | G,2 G, | C,2 C, | G,,2 z | %20
w: moor and|moun- tain|fol- lo- wing|yon- der|star:|O|star of|won- der,|star of|night,|
w: ceas- ing|nev- er|o- ver us|all to|reign:||||||
w: all men|rais- ing,|wor- ship him,|God on|high:||||||
w: bleed- ing,|dy- ing|sealed in the|stone- cold|tomb:||||||
w: al- le-|lu- ia.|Heav- en and|earth re-|plies.||||||
 G,2 G, | G,2 G, | C,2 C, | G,,2 z | E,2 E, | D,2 G, | C,2 G, | D,2 G, | G,2 G, | G,2 G, | C,2 C, | %31
w: star with|roy- al|beau- ty|bright,|west- ward|lead- ing,|still pro-|ceed- ing,|guide us|to thy|per- fect|
w: |||||||||||
w: |||||||||||
w: |||||||||||
w: |||||||||||
 G,,3 :| C,3 | [G,,G,]3 |] %34
w: light.|A-|men.|
w: |||
w: |||
w: |||
w: |||

